priv/static/svgs/icons_new/sport-sailing.svg

<svg width="32" height="32" viewBox="0 0 32 32" fill="none" xmlns="http://www.w3.org/2000/svg">
<path d="M9.14918 27.1057C9.36283 27.2806 9.67785 27.2492 9.85281 27.0356C10.0278 26.8219 9.99639 26.5069 9.78274 26.332L9.14918 27.1057ZM6.75987 23.889L6.86078 23.3993L5.50504 23.12L6.36931 24.2012L6.75987 23.889ZM23.6552 24.3543L24.1224 24.1762L24.0004 23.856L23.6578 23.8543L23.6552 24.3543ZM23.8787 26.3442C23.977 26.6023 24.266 26.7317 24.524 26.6334C24.782 26.535 24.9115 26.2461 24.8131 25.9881L23.8787 26.3442ZM18.8593 22.4969L19.3122 22.285L19.1803 22.0031L18.8692 21.997L18.8593 22.4969ZM14.067 22.4024L14.0769 21.9025L13.7879 21.8969L13.6387 22.1444L14.067 22.4024ZM14.8533 19.6953C14.5772 19.6953 14.3533 19.9192 14.3533 20.1953C14.3533 20.4714 14.5772 20.6953 14.8533 20.6953V19.6953ZM22.6953 20.6953C22.9715 20.6953 23.1953 20.4714 23.1953 20.1953C23.1953 19.9192 22.9715 19.6953 22.6953 19.6953V20.6953ZM14.5723 21.4134C14.8432 21.4669 15.1062 21.2906 15.1597 21.0197C15.2132 20.7488 15.0369 20.4858 14.766 20.4323L14.5723 21.4134ZM6.51547 21.9792L6.03344 22.112L6.19482 22.6976L6.73848 22.4267L6.51547 21.9792ZM14.9382 5.09208C15.178 4.95524 15.2615 4.64987 15.1247 4.41002C14.9879 4.17017 14.6825 4.08666 14.4426 4.2235L14.9382 5.09208ZM14.2896 22.3815C14.2896 22.6576 14.5134 22.8815 14.7896 22.8815C15.0657 22.8815 15.2896 22.6576 15.2896 22.3815H14.2896ZM14.7896 3.5V3H14.2896V3.5H14.7896ZM16.5464 3.5H17.0464V3H16.5464V3.5ZM16.5464 4.43043H16.0464V4.93043H16.5464V4.43043ZM18.406 4.93043C18.6821 4.93043 18.906 4.70657 18.906 4.43043C18.906 4.15429 18.6821 3.93043 18.406 3.93043V4.93043ZM26.2935 27.7078C26.517 27.5457 26.5669 27.2331 26.4048 27.0095C26.2428 26.7859 25.9301 26.7361 25.7065 26.8981L26.2935 27.7078ZM19.5925 27.303L19.9462 26.9495L19.7997 26.803H19.5925V27.303ZM19.5536 27.303V26.803H19.3914L19.2601 26.8981L19.5536 27.303ZM13.1461 27.303L13.4997 26.9495L13.3533 26.803H13.1461V27.303ZM13.1071 27.303V26.803H12.945L12.8137 26.8981L13.1071 27.303ZM7.05331 26.9495C6.85809 26.7542 6.54151 26.7541 6.3462 26.9493C6.15088 27.1445 6.1508 27.4611 6.34601 27.6564L7.05331 26.9495ZM9.78274 26.332C9.16997 25.8302 8.51377 25.1455 8.00319 24.5755C7.74975 24.2926 7.53572 24.0419 7.38526 23.8622C7.31008 23.7724 7.25089 23.7004 7.21072 23.6512C7.19064 23.6266 7.17532 23.6077 7.16514 23.5951C7.16006 23.5888 7.15625 23.5841 7.15379 23.581C7.15255 23.5795 7.15165 23.5784 7.15109 23.5777C7.15081 23.5773 7.15062 23.5771 7.15051 23.5769C7.15045 23.5769 7.15042 23.5768 7.15041 23.5768C7.1504 23.5768 7.15041 23.5768 7.1504 23.5768C7.15042 23.5768 7.15043 23.5769 6.75987 23.889C6.36931 24.2012 6.36934 24.2013 6.36937 24.2013C6.36939 24.2013 6.36943 24.2014 6.36947 24.2014C6.36954 24.2015 6.36964 24.2016 6.36976 24.2018C6.36999 24.2021 6.37031 24.2025 6.37072 24.203C6.37153 24.204 6.37269 24.2054 6.37418 24.2073C6.37717 24.211 6.3815 24.2164 6.38713 24.2234C6.39839 24.2373 6.41484 24.2576 6.43611 24.2837C6.47864 24.3358 6.54046 24.4109 6.61852 24.5041C6.77455 24.6905 6.99597 24.9498 7.25833 25.2427C7.77936 25.8244 8.4762 26.5546 9.14918 27.1057L9.78274 26.332ZM6.65897 24.3788C7.18104 24.4863 8.52375 24.5641 10.1763 24.6252C11.8535 24.6872 13.9103 24.7333 15.9057 24.7672C17.9015 24.8011 19.8382 24.8229 21.2757 24.8361C21.9945 24.8428 22.5886 24.8473 23.0031 24.8502C23.2103 24.8516 23.3726 24.8526 23.4832 24.8533C23.5385 24.8536 23.5808 24.8539 23.6093 24.854C23.6236 24.8541 23.6344 24.8542 23.6416 24.8542C23.6453 24.8542 23.648 24.8542 23.6499 24.8542C23.6508 24.8542 23.6515 24.8542 23.6519 24.8542C23.6522 24.8542 23.6523 24.8542 23.6525 24.8542C23.6526 24.8542 23.6526 24.8542 23.6552 24.3543C23.6578 23.8543 23.6577 23.8543 23.6576 23.8543C23.6575 23.8543 23.6573 23.8543 23.6571 23.8543C23.6567 23.8543 23.656 23.8543 23.6551 23.8542C23.6533 23.8542 23.6506 23.8542 23.647 23.8542C23.6398 23.8542 23.629 23.8541 23.6148 23.854C23.5865 23.8539 23.5443 23.8536 23.4891 23.8533C23.3789 23.8526 23.2169 23.8516 23.01 23.8502C22.5962 23.8473 22.0028 23.8428 21.2849 23.8362C19.849 23.8229 17.9151 23.8012 15.9227 23.7673C13.9297 23.7335 11.8805 23.6875 10.2132 23.6259C8.52117 23.5633 7.28087 23.4859 6.86078 23.3993L6.65897 24.3788ZM23.188 24.5324L23.8787 26.3442L24.8131 25.9881L24.1224 24.1762L23.188 24.5324ZM20.1304 24.0339L19.3122 22.285L18.4064 22.7088L19.2246 24.4577L20.1304 24.0339ZM18.8692 21.997L14.0769 21.9025L14.0572 22.9024L18.8495 22.9968L18.8692 21.997ZM13.6387 22.1444L12.6187 23.8374L13.4752 24.3535L14.4953 22.6605L13.6387 22.1444ZM14.4078 6.58469L21.4918 20.4922L22.3829 20.0383L15.2989 6.13082L14.4078 6.58469ZM14.8533 20.6953H22.6953V19.6953H14.8533V20.6953ZM14.766 20.4323C12.5108 19.9869 10.3944 20.2639 8.85174 20.6456C8.07854 20.837 7.44397 21.056 7.00085 21.228C6.77913 21.3141 6.60491 21.3886 6.48475 21.4422C6.42465 21.4691 6.37804 21.4907 6.34573 21.506C6.32957 21.5136 6.31699 21.5197 6.30808 21.524C6.30362 21.5262 6.30009 21.5279 6.29748 21.5292C6.29618 21.5299 6.2951 21.5304 6.29427 21.5308C6.29385 21.531 6.29349 21.5312 6.29319 21.5313C6.29304 21.5314 6.29286 21.5315 6.29278 21.5315C6.29262 21.5316 6.29246 21.5317 6.51547 21.9792C6.73848 22.4267 6.73836 22.4268 6.73825 22.4268C6.73824 22.4268 6.73814 22.4269 6.73811 22.4269C6.73804 22.4269 6.73803 22.4269 6.73808 22.4269C6.73818 22.4269 6.7385 22.4267 6.73906 22.4264C6.74017 22.4259 6.74219 22.4249 6.74512 22.4235C6.75098 22.4206 6.76044 22.4161 6.77341 22.4099C6.79934 22.3977 6.83929 22.3791 6.89243 22.3554C6.99873 22.3079 7.15768 22.2399 7.36278 22.1602C7.77328 22.0009 8.36689 21.7958 9.09196 21.6163C10.5458 21.2565 12.5063 21.0053 14.5723 21.4134L14.766 20.4323ZM6.9975 21.8464C5.54757 16.585 7.50281 12.4185 9.85982 9.53313C11.0394 8.08917 12.3133 6.97559 13.2937 6.2227C13.7833 5.84673 14.1981 5.56197 14.4889 5.37212C14.6342 5.27722 14.7484 5.20612 14.8254 5.15928C14.8639 5.13586 14.893 5.11851 14.9121 5.10729C14.9216 5.10168 14.9286 5.0976 14.933 5.09507C14.9352 5.0938 14.9367 5.09292 14.9376 5.09242C14.938 5.09217 14.9383 5.09202 14.9384 5.09196C14.9384 5.09193 14.9384 5.09196 14.9384 5.09195C14.9383 5.09201 14.9382 5.09208 14.6904 4.65779C14.4426 4.2235 14.4424 4.22363 14.4421 4.22378C14.442 4.22386 14.4417 4.22404 14.4414 4.22421C14.4408 4.22454 14.4401 4.22497 14.4391 4.2255C14.4373 4.22656 14.4348 4.22801 14.4316 4.22985C14.4252 4.23354 14.4162 4.23878 14.4047 4.24559C14.3816 4.25919 14.3483 4.27902 14.3055 4.30503C14.2201 4.35704 14.0969 4.43377 13.9422 4.53479C13.6328 4.73676 13.197 5.03617 12.6847 5.42957C11.6613 6.2154 10.3263 7.38134 9.08537 8.9005C6.60136 11.9414 4.46914 16.4356 6.03344 22.112L6.9975 21.8464ZM14.4 20.8949C14.6795 20.4803 14.6799 20.4806 14.6802 20.4808C14.6803 20.4809 14.6806 20.4811 14.6808 20.4812C14.6811 20.4814 14.6814 20.4816 14.6816 20.4817C14.6819 20.4819 14.6819 20.482 14.6816 20.4817C14.681 20.4813 14.679 20.4799 14.6758 20.4776C14.6695 20.4731 14.6582 20.4648 14.6424 20.4527C14.6109 20.4284 14.5615 20.3889 14.4983 20.333C14.3717 20.2212 14.1898 20.0443 13.9836 19.7943C13.5719 19.295 13.061 18.5014 12.7003 17.3456C11.9811 15.0413 11.8381 11.226 14.4016 5.32935L13.4845 4.93066C10.8519 10.9862 10.9373 15.0534 11.7457 17.6435C12.1487 18.9348 12.7263 19.8414 13.2121 20.4305C13.4547 20.7246 13.6738 20.939 13.8362 21.0824C13.9173 21.1541 13.9844 21.2081 14.0331 21.2456C14.0574 21.2643 14.0772 21.2789 14.092 21.2895C14.0993 21.2948 14.1054 21.2991 14.1102 21.3024C14.1125 21.304 14.1146 21.3055 14.1163 21.3066C14.1172 21.3072 14.1179 21.3077 14.1186 21.3082C14.1189 21.3084 14.1194 21.3087 14.1196 21.3088C14.12 21.3091 14.1204 21.3094 14.4 20.8949ZM15.2896 22.3815V3.5H14.2896V22.3815H15.2896ZM14.7896 4H16.5464V3H14.7896V4ZM16.0464 3.5V4.43043H17.0464V3.5H16.0464ZM16.5464 4.93043H18.406V3.93043H16.5464V4.93043ZM25.7065 26.8981C23.9793 28.1502 22.5393 28.1279 21.5448 27.8335C21.0365 27.6831 20.6303 27.4567 20.3517 27.2678C20.2129 27.1737 20.1074 27.09 20.0383 27.0316C20.0039 27.0025 19.9786 26.9798 19.9631 26.9654C19.9554 26.9583 19.95 26.9532 19.9472 26.9504C19.9458 26.9491 19.945 26.9483 19.9448 26.9481C19.9447 26.948 19.9448 26.9481 19.945 26.9483C19.9451 26.9484 19.9453 26.9486 19.9455 26.9488C19.9456 26.9489 19.9457 26.9491 19.9458 26.9491C19.946 26.9493 19.9462 26.9495 19.5925 27.303C19.2389 27.6564 19.2391 27.6566 19.2393 27.6569C19.2394 27.6569 19.2396 27.6572 19.2398 27.6574C19.2402 27.6577 19.2406 27.6581 19.241 27.6586C19.2419 27.6594 19.243 27.6605 19.2442 27.6617C19.2466 27.6641 19.2498 27.6671 19.2535 27.6708C19.2611 27.678 19.2714 27.6878 19.2842 27.6997C19.3099 27.7234 19.3462 27.756 19.3926 27.7952C19.4853 27.8736 19.619 27.9793 19.7907 28.0956C20.1329 28.3276 20.632 28.6062 21.261 28.7924C22.5414 29.1714 24.3051 29.1491 26.2935 27.7078L25.7065 26.8981ZM19.5925 26.803H19.5536V27.803H19.5925V26.803ZM19.2601 26.8981C17.5329 28.1502 16.0929 28.1279 15.0984 27.8335C14.59 27.6831 14.1839 27.4567 13.9053 27.2678C13.7665 27.1737 13.6609 27.09 13.5919 27.0316C13.5574 27.0025 13.5322 26.9798 13.5167 26.9654C13.5089 26.9583 13.5036 26.9532 13.5007 26.9504C13.4993 26.9491 13.4985 26.9483 13.4984 26.9481C13.4983 26.948 13.4983 26.9481 13.4986 26.9483C13.4987 26.9484 13.4988 26.9486 13.499 26.9488C13.4991 26.9489 13.4993 26.9491 13.4994 26.9491C13.4995 26.9493 13.4997 26.9495 13.1461 27.303C12.7924 27.6564 12.7927 27.6566 12.7929 27.6569C12.793 27.6569 12.7932 27.6572 12.7934 27.6574C12.7938 27.6577 12.7942 27.6581 12.7946 27.6586C12.7955 27.6594 12.7965 27.6605 12.7978 27.6617C12.8002 27.6641 12.8033 27.6671 12.8071 27.6708C12.8147 27.678 12.8249 27.6878 12.8378 27.6997C12.8635 27.7234 12.8998 27.756 12.9462 27.7952C13.0388 27.8736 13.1726 27.9793 13.3442 28.0956C13.6865 28.3276 14.1855 28.6062 14.8146 28.7924C16.0949 29.1714 17.8587 29.1491 19.847 27.7078L19.2601 26.8981ZM13.1461 26.803H13.1071V27.803H13.1461V26.803ZM12.8137 26.8981C11.0865 28.1502 9.64646 28.1279 8.65197 27.8335C8.14361 27.6831 7.73744 27.4567 7.45887 27.2678C7.32006 27.1737 7.21449 27.09 7.14545 27.0316C7.11098 27.0025 7.08578 26.9798 7.07025 26.9654C7.06249 26.9583 7.05716 26.9532 7.05431 26.9504C7.05289 26.9491 7.05209 26.9483 7.05192 26.9481C7.05184 26.948 7.05191 26.9481 7.05214 26.9483C7.05225 26.9484 7.05241 26.9486 7.0526 26.9488C7.0527 26.9489 7.05288 26.9491 7.05292 26.9491C7.05311 26.9493 7.05331 26.9495 6.69966 27.303C6.34601 27.6564 6.34623 27.6566 6.34645 27.6569C6.34654 27.6569 6.34678 27.6572 6.34696 27.6574C6.34732 27.6577 6.34772 27.6581 6.34816 27.6586C6.34905 27.6594 6.3501 27.6605 6.35132 27.6617C6.35377 27.6641 6.35689 27.6671 6.36067 27.6708C6.36824 27.678 6.37848 27.6878 6.39135 27.6997C6.41706 27.7234 6.45332 27.756 6.49971 27.7952C6.59241 27.8736 6.72617 27.9793 6.89778 28.0956C7.24005 28.3276 7.73909 28.6062 8.36815 28.7924C9.64851 29.1714 11.4122 29.1491 13.4006 27.7078L12.8137 26.8981Z" fill="black"/>
</svg>

<svg width="32" height="32" viewBox="0 0 32 32" fill="none" xmlns="http://www.w3.org/2000/svg">
  <symbol id="item" viewBox="0 0 32 32"  fill="none">
    <path d="M9.15 27.106a.5.5 0 0 0 .633-.774l-.634.774Zm-2.39-3.217.1-.49-1.355-.279.864 1.081.39-.312Zm16.895.465.467-.178-.122-.32-.342-.002-.003.5Zm.224 1.99a.5.5 0 1 0 .934-.356l-.934.356Zm-5.02-3.847.453-.212-.132-.282-.31-.006-.01.5Zm-4.792-.095.01-.5-.29-.005-.148.247.428.258Zm.786-2.707a.5.5 0 0 0 0 1v-1Zm7.842 1a.5.5 0 1 0 0-1v1Zm-8.123.718a.5.5 0 0 0 .194-.98l-.194.98Zm-8.057.566-.482.133.162.586.543-.271-.223-.448Zm8.423-16.887a.5.5 0 0 0-.495-.869l.495.87Zm-.648 17.29a.5.5 0 1 0 1 0h-1Zm.5-18.882V3h-.5v.5h.5Zm1.756 0h.5V3h-.5v.5Zm0 .93h-.5v.5h.5v-.5Zm1.86.5a.5.5 0 0 0 0-1v1Zm7.888 22.778a.5.5 0 0 0-.588-.81l.588.81Zm-6.701-.405.353-.354-.146-.146h-.207v.5Zm-.04 0v-.5h-.162l-.13.095.293.405Zm-6.407 0 .354-.354-.147-.146h-.207v.5Zm-.039 0v-.5h-.162l-.131.095.293.405Zm-6.054-.354a.5.5 0 0 0-.707.707l.707-.706Zm2.73-.617c-.613-.502-1.27-1.187-1.78-1.756a28.543 28.543 0 0 1-.838-.98l-.011-.015a.297.297 0 0 1-.003-.003v-.001a333.488 333.488 0 0 1-.782.624l.002.002.003.004.013.016a25.245 25.245 0 0 0 .871 1.02c.521.581 1.218 1.312 1.891 1.863l.634-.774Zm-3.124-1.953c.522.107 1.865.185 3.517.246 1.678.062 3.734.108 5.73.142a705.948 705.948 0 0 0 7.097.083l.48.003.126.001H23.652l.003-.5.003-.5H23.488l-.479-.004a791.135 791.135 0 0 1-7.087-.083c-1.993-.034-4.043-.08-5.71-.141-1.692-.063-2.932-.14-3.352-.227l-.202.98Zm16.529.153.69 1.812.935-.356-.69-1.812-.935.356Zm-3.058-.498-.818-1.749-.906.424.819 1.749.905-.424Zm-1.26-2.037-4.793-.095-.02 1 4.792.095.02-1Zm-5.231.147-1.02 1.693.856.517 1.02-1.694-.856-.516Zm.769-15.56 7.084 13.908.89-.454L15.3 6.131l-.891.454Zm.445 14.111h7.842v-1h-7.842v1Zm-.087-.263c-2.255-.445-4.372-.168-5.914.214-.773.191-1.408.41-1.851.582a11.44 11.44 0 0 0-.655.278l-.038.018-.01.005-.004.002h-.001l.222.448.223.448h.001l.006-.003.028-.014a10.386 10.386 0 0 1 .59-.25c.41-.16 1.004-.364 1.729-.544 1.454-.36 3.414-.61 5.48-.203l.194-.98Zm-7.769 1.414c-1.45-5.261.506-9.428 2.863-12.313a20.973 20.973 0 0 1 4.629-4.16 12.55 12.55 0 0 1 .444-.278l.005-.003-.248-.434c-.247-.435-.248-.434-.248-.434l-.003.002a.888.888 0 0 1-.034.02 13.754 13.754 0 0 0-.463.29A21.966 21.966 0 0 0 9.085 8.9c-2.484 3.04-4.616 7.534-3.052 13.21l.964-.266Zm7.403-.951.28-.414h.002s0 .001 0 0l-.006-.003a2.796 2.796 0 0 1-.178-.145 4.769 4.769 0 0 1-.514-.539c-.412-.499-.923-1.293-1.284-2.448-.719-2.305-.862-6.12 1.702-12.017l-.917-.398c-2.633 6.055-2.548 10.122-1.74 12.712.404 1.292.981 2.198 1.467 2.787.243.295.462.509.624.652a3.784 3.784 0 0 0 .274.22l.006.005.003.001c.001.001.001.001.281-.413Zm.89 1.486V3.5h-1v18.881h1ZM14.79 4h1.756V3H14.79v1Zm1.256-.5v.93h1V3.5h-1Zm.5 1.43h1.86v-1h-1.86v1Zm9.16 21.968c-1.727 1.252-3.167 1.23-4.161.936a4.337 4.337 0 0 1-1.507-.802 2.227 2.227 0 0 1-.09-.082c-.002 0-.003-.002-.003-.002v.001l-.352.354-.354.354.002.002.003.003.01.009.03.029c.026.023.062.056.109.095a5.34 5.34 0 0 0 1.868.997c1.28.38 3.044.357 5.033-1.084l-.588-.81Zm-6.113-.095h-.04v1h.04v-1Zm-.333.095c-1.727 1.252-3.167 1.23-4.162.936a4.336 4.336 0 0 1-1.506-.802 2.13 2.13 0 0 1-.094-.084h.001v.001l-.353.354c-.354.353-.353.354-.353.354l.002.002.003.003.01.009.03.029c.026.023.062.056.108.095a5.34 5.34 0 0 0 1.868.997c1.28.38 3.045.357 5.033-1.084l-.587-.81Zm-6.114-.095h-.039v1h.04v-1Zm-.332.095c-1.728 1.252-3.168 1.23-4.162.936a4.336 4.336 0 0 1-1.507-.802 2.187 2.187 0 0 1-.093-.084v.001l-.352.354-.354.354h.001l.001.002.003.003.01.009.03.029c.026.023.062.056.109.095a5.34 5.34 0 0 0 1.868.997c1.28.38 3.044.357 5.033-1.084l-.587-.81Z" fill="currentColor"/>
  </symbol>
</svg>
